icons/1_Primary/Trello.svg

<svg xmlns="http://www.w3.org/2000/svg" width="1024" height="1024" fill="none">
   <g clip-path="url(#a)">
      <path fill="#728DBE" d="M512 1024c282.77 0 512-229.23 512-512S794.77 0 512 0 0 229.23 0 512s229.23 512 512 512Z"/>
      <path fill="#fff" d="M680.9 290.4H343.1c-29.1 0-52.7 23.6-52.7 52.7v337.8c0 29.1 23.6 52.7 52.7 52.7h337.8c29.1 0 52.7-23.6 52.7-52.7V343.1c0-29.1-23.6-52.7-52.7-52.7ZM481.3 609.6c0 9.7-7.8 17.5-17.5 17.5h-74c-9.7 0-17.5-7.8-17.5-17.5V389.7c0-9.7 7.8-17.5 17.5-17.5h74c9.7 0 17.5 7.8 17.5 17.5v219.9Zm170.5-100.9c.2 9.7-7.5 17.7-17.2 17.9h-74.4c-9.7 0-17.5-7.8-17.5-17.5V389.7c0-9.7 7.8-17.5 17.5-17.5h74c9.7 0 17.5 7.8 17.5 17.5v119h.1Z"/>
   </g>
   <defs>
      <clipPath id="a">
         <path fill="#fff" d="M0 0h1024v1024H0z"/>
      </clipPath>
   </defs>
</svg>

<svg width="1024" height="1024" viewBox="0 0 1024 1024" fill="none" xmlns="http://www.w3.org/2000/svg">
<g clip-path="url(#clip0_2_3723)">
<path d="M512 1024C794.77 1024 1024 794.77 1024 512C1024 229.23 794.77 0 512 0C229.23 0 0 229.23 0 512C0 794.77 229.23 1024 512 1024Z" fill="#728DBE"/>
<path d="M680.9 290.4H343.1C314 290.4 290.4 314 290.4 343.1V680.9C290.4 710 314 733.6 343.1 733.6H680.9C710 733.6 733.6 710 733.6 680.9V343.1C733.6 314 710 290.4 680.9 290.4ZM481.3 609.6C481.3 619.3 473.5 627.1 463.8 627.1H389.8C380.1 627.1 372.3 619.3 372.3 609.6V389.7C372.3 380 380.1 372.2 389.8 372.2H463.8C473.5 372.2 481.3 380 481.3 389.7V609.6ZM651.8 508.7C652 518.4 644.3 526.4 634.6 526.6H560.2C550.5 526.6 542.7 518.8 542.7 509.1V389.7C542.7 380 550.5 372.2 560.2 372.2H634.2C643.9 372.2 651.7 380 651.7 389.7V508.7H651.8Z" fill="white"/>
</g>
<defs>
<clipPath id="clip0_2_3723">
<rect width="1024" height="1024" fill="white"/>
</clipPath>
</defs>
</svg>
